X: 22
T: the Convenience Reel
R: reel
Z: 2012 John Chambers <jc@trillian.mit.edu>
B: "100 Essential Irish Session Tunes" 1995 Dave Mallinson, ed.
M: 4/4
L: 1/8
K: D
|: "D"df~f2 dfed | "A"cAce gece | "D"df~f2 dfed |1 "A7"cABc "D"d3A :|2 "A7"cABc "D"defg |]
|: "D"aAgA fAeA | "A"Ae~e2 Aeef | aAgAfAeA | "D"Addc defg |
 | "D"aA~A2 aA^gA | "A7"gA~A2 gAgA | "D"fgaf "G"gbag |1"A7"fdec "D"defg :|2 "A7"fdec "D"dABc |]
|: "D"dABA dABA | "A7"GAFA EADA | "D"dABA dABA | "A7"FAEA "D"D3A :|

%%sep 2 1 500
%%sep 1 1 500

